public/avatar/hat/11.svg

<svg xmlns:xlink="http://www.w3.org/1999/xlink" height="92.9" width="100.7" xmlns="http://www.w3.org/2000/svg"><use height="31.75" transform="translate(17.6 46.25)" width="41.8" xlink:href="#a"/><defs><g id="a" fill-rule="evenodd"><path d="M12.4 4.95q-4.5 2.4-9.6 2.8l-6.2.15q-5.9-.05-11.15-1.6.4-1.45 1.25-2.85 7.8 2.6 15.65 1.4Q7 4.2 11.25 2.1l1.15 2.85" fill="#f90" transform="translate(21.05 3.5)"/><path d="M2.8 7.75q5.1-.4 9.6-2.8l.75 2.9q.45 2.35 1.55 4.65 1.75 3.55 5 5.9l1.05.95-7.3 6.7Q9.9 26 7.5 18.6q.3 6.75 2.15 8.95l-2.55.05Q4.95 24.45 2.8 7.75m8.45-5.65Q7 4.2 2.35 4.85q-7.85 1.2-15.65-1.4Q-10.55-5.8-.6-2.4 7.55-6 11.25 2.1m-25.8 4.2Q-9.3 7.85-3.4 7.9l-.35 1.05q-.95 3.6-1.5 7.3l-.95 5.6-.4 2.05Q-7 26-9 28.25l-1.7-1.8 1.4-5.35-.25.55-1.35 2.55q-.75 1.45-2.2 2.15l-7.95-5.3.85-.7q1.65-1.5 2.5-3.45l1.2-3.35 1.2-4.1.75-3.15" fill="#220" transform="translate(21.05 3.5)"/></g></defs></svg>

<?xml version="1.0" encoding="UTF-8" standalone="no"?>
<svg xmlns:xlink="http://www.w3.org/1999/xlink" height="92.9px" width="100.7px" xmlns="http://www.w3.org/2000/svg">
  <g transform="matrix(1.0, 0.0, 0.0, 1.0, 38.65, 49.75)">
    <use height="31.75" transform="matrix(1.0, 0.0, 0.0, 1.0, -21.05, -3.5)" width="41.8" xlink:href="#shape0"/>
  </g>
  <defs>
    <g id="shape0" transform="matrix(1.0, 0.0, 0.0, 1.0, 21.05, 3.5)">
      <path d="M12.4 4.95 Q7.9 7.35 2.8 7.75 L-3.4 7.9 Q-9.3 7.85 -14.55 6.3 -14.15 4.85 -13.3 3.45 -5.5 6.05 2.35 4.85 7.0 4.2 11.25 2.1 L12.4 4.95" fill="#ff9900" fill-rule="evenodd" stroke="none"/>
      <path d="M2.8 7.75 Q7.9 7.35 12.4 4.95 L13.15 7.85 Q13.6 10.2 14.7 12.5 16.45 16.05 19.7 18.4 L20.75 19.35 13.45 26.05 Q9.9 26.0 7.5 18.6 7.8 25.35 9.65 27.55 L7.1 27.6 Q4.95 24.45 2.8 7.75 M11.25 2.1 Q7.0 4.2 2.35 4.85 -5.5 6.05 -13.3 3.45 -10.55 -5.8 -0.6 -2.4 7.55 -6.0 11.25 2.1 M-14.55 6.3 Q-9.3 7.85 -3.4 7.9 L-3.75 8.95 Q-4.7 12.55 -5.25 16.25 L-6.2 21.85 -6.6 23.9 Q-7.0 26.0 -9.0 28.25 L-10.7 26.45 -9.3 21.1 -9.55 21.65 -10.9 24.2 Q-11.65 25.65 -13.1 26.35 L-21.05 21.05 -20.2 20.35 Q-18.55 18.85 -17.7 16.9 L-16.5 13.55 -15.3 9.45 -14.55 6.3" fill="#222200" fill-rule="evenodd" stroke="none"/>
    </g>
  </defs>
</svg>
